docs/themes/v2/source/images/new/foot1.svg

<svg fill="none" height="18" viewBox="0 0 18 18" width="18" xmlns="http://www.w3.org/2000/svg"><path d="m.993428 0c-.548712 0-.993428.444648-.993428.993428v16.013172c0 .5486.444716.9934.993428.9934h8.620902v-6.9705h-2.34571v-2.7166h2.34571v-2.00338c0-2.32495 1.41997-3.59091 3.49397-3.59091.9935 0 1.8473.07398 2.0961.10703v2.42968l-1.4384.00068c-1.1279 0-1.3463.53596-1.3463 1.32248v1.73442h2.6901l-.3503 2.7166h-2.3398v6.9705h4.5869c.5486 0 .9934-.4448.9934-.9934v-16.013172c0-.54878-.4448-.993428-.9934-.993428z" fill="#000" fill-opacity=".4"/></svg>

<svg width="18" height="18" viewBox="0 0 18 18" fill="none" xmlns="http://www.w3.org/2000/svg">
<path d="M0.993428 0C0.444716 0 0 0.444648 0 0.993428V17.0066C0 17.5552 0.444716 18 0.993428 18H9.61433V11.0295H7.26862V8.3129H9.61433V6.30952C9.61433 3.98457 11.0343 2.71861 13.1083 2.71861C14.1018 2.71861 14.9556 2.79259 15.2044 2.82564V5.25532L13.766 5.256C12.6381 5.256 12.4197 5.79196 12.4197 6.57848V8.3129H15.1098L14.7595 11.0295H12.4197V18H17.0066C17.5552 18 18 17.5552 18 17.0066V0.993428C18 0.444648 17.5552 0 17.0066 0H0.993428Z" fill="black" fill-opacity="0.4"/>
</svg>
